level0_zalo.svg

<?xml version="1.0" encoding="UTF-8" standalone="no"?>
<svg
   xmlns:dc="http://purl.org/dc/elements/1.1/"
   xmlns:cc="http://creativecommons.org/ns#"
   xmlns:rdf="http://www.w3.org/1999/02/22-rdf-syntax-ns#"
   xmlns:svg="http://www.w3.org/2000/svg"
   xmlns="http://www.w3.org/2000/svg"
   xmlns:sodipodi="http://sodipodi.sourceforge.net/DTD/sodipodi-0.dtd"
   xmlns:inkscape="http://www.inkscape.org/namespaces/inkscape"
   width="253.38538"
   height="273.29634"
   viewBox="0 0 253.38538 273.29634"
   id="svg2"
   version="1.1"
   inkscape:version="0.91 r13725"
   sodipodi:docname="level0_zalo.svg">
  <sodipodi:namedview
     pagecolor="#ffffff"
     bordercolor="#666666"
     borderopacity="1"
     objecttolerance="10"
     gridtolerance="10"
     guidetolerance="10"
     inkscape:pageopacity="0"
     inkscape:pageshadow="2"
     inkscape:window-width="1680"
     inkscape:window-height="1026"
     id="namedview4153"
     showgrid="false"
     inkscape:zoom="1.1875827"
     inkscape:cx="23.075626"
     inkscape:cy="20.511334"
     inkscape:window-x="1920"
     inkscape:window-y="24"
     inkscape:window-maximized="1"
     inkscape:current-layer="svg2"
     inkscape:object-paths="true"
     inkscape:snap-intersection-paths="true"
     inkscape:object-nodes="true"
     inkscape:snap-smooth-nodes="true"
     inkscape:snap-midpoints="true"
     showguides="true"
     inkscape:guide-bbox="true">
    <sodipodi:guide
       position="15.156839,134.72747"
       orientation="0,1"
       id="guide4159" />
    <sodipodi:guide
       position="120.91188,192.58501"
       orientation="1,0"
       id="guide4161" />
  </sodipodi:namedview>
  <defs
     id="defs4" />
  <metadata
     id="metadata7">
    <rdf:RDF>
      <cc:Work
         rdf:about="">
        <dc:format>image/svg+xml</dc:format>
        <dc:type
           rdf:resource="http://purl.org/dc/dcmitype/StillImage" />
        <dc:title />
      </cc:Work>
    </rdf:RDF>
  </metadata>
  <g
     id="powerlines"
     powerlines=""
     transform="translate(0,2)">
    <path
       style="fill:none;fill-rule:evenodd;stroke:#000000;stroke-width:0.41987401px;stroke-linecap:butt;stroke-linejoin:miter;stroke-opacity:1"
       d="M 158.65088,45.979367 L 142.31355,46.277527"
       id="path3380-1"
       inkscape:connector-curvature="0"
       sodipodi:nodetypes="cc" />
    <path
       style="fill:none;fill-rule:evenodd;stroke:#000000;stroke-width:1px;stroke-linecap:butt;stroke-linejoin:miter;stroke-opacity:1"
       d="M 103.05332,197.81089 L 103.05332,114.38316 L 211.422,114.42146 L 211.422,45.979367 L 194.79158,45.979367"
       id="path4166"
       inkscape:connector-curvature="0" />
    <path
       inkscape:connector-curvature="0"
       id="path4169"
       d="M 197.6784,177.73192 L 197.6784,138.56886 L 57.457727,138.56886 L 57.457727,46.74021 L 94.96899,46.74021"
       style="fill:none;fill-rule:evenodd;stroke:#000000;stroke-width:1px;stroke-linecap:butt;stroke-linejoin:miter;stroke-opacity:1" />
  </g>
  <g
     transform="translate(114.58687,48.403002)"
     id="generators">
    <rect
       y="-27.378788"
       x="-24.849411"
       height="54.208466"
       width="54.208466"
       id="rect4209"
       style="opacity:1;fill:#ffa300;fill-opacity:1;stroke:#000000;stroke-width:1;stroke-linejoin:round;stroke-miterlimit:4;stroke-dasharray:none;stroke-dashoffset:0;stroke-opacity:1" />
  </g>
  <g
     transform="translate(-15.381923,2.3800421)"
     id="sockets">
    <rect
       y="190.49631"
       x="90.933121"
       height="48.552288"
       width="48.552288"
       id="rect4171"
       style="opacity:1;fill:#cccccc;fill-opacity:1;stroke:#000000;stroke-width:1.79131746;stroke-linejoin:round;stroke-miterlimit:4;stroke-dasharray:none;stroke-dashoffset:0;stroke-opacity:1" />
    <rect
       style="opacity:1;fill:#cccccc;fill-opacity:1;stroke:#000000;stroke-width:1.79131746;stroke-linejoin:round;stroke-miterlimit:4;stroke-dasharray:none;stroke-dashoffset:0;stroke-opacity:1"
       id="rect4149"
       width="48.552288"
       height="48.552288"
       x="187.49565"
       y="173.31842" />
  </g>
  <g
     transform="translate(-85.731594,24.276162)"
     id="switches">
    <path
       id="path4148-3"
       d="M 280.52317,18.27923 L 280.52317,29.12718 C 243.01458,29.12718 280.52317,29.12718 243.01458,29.12718 L 243.01458,18.27923 Z"
       style="fill:#000000;fill-opacity:1;fill-rule:evenodd;stroke:#000000;stroke-width:0.83959937px;stroke-linecap:butt;stroke-linejoin:miter;stroke-opacity:1"
       inkscape:connector-curvature="0"
       inkscape:transform-center-x="0.24967681"
       inkscape:transform-center-y="0.14776592"
       sodipodi:nodetypes="ccccc" />
  </g>
</svg>

<?xml version="1.0" encoding="UTF-8" standalone="no"?>
<svg
   xmlns:dc="http://purl.org/dc/elements/1.1/"
   xmlns:cc="http://creativecommons.org/ns#"
   xmlns:rdf="http://www.w3.org/1999/02/22-rdf-syntax-ns#"
   xmlns:svg="http://www.w3.org/2000/svg"
   xmlns="http://www.w3.org/2000/svg"
   xmlns:sodipodi="http://sodipodi.sourceforge.net/DTD/sodipodi-0.dtd"
   xmlns:inkscape="http://www.inkscape.org/namespaces/inkscape"
   width="253.38538"
   height="273.29634"
   viewBox="0 0 253.38538 273.29634"
   id="svg2"
   version="1.1"
   inkscape:version="0.91 r13725"
   sodipodi:docname="level4.svg">
  <sodipodi:namedview
     pagecolor="#ffffff"
     bordercolor="#666666"
     borderopacity="1"
     objecttolerance="10"
     gridtolerance="10"
     guidetolerance="10"
     inkscape:pageopacity="0"
     inkscape:pageshadow="2"
     inkscape:window-width="1920"
     inkscape:window-height="1056"
     id="namedview4153"
     showgrid="false"
     inkscape:zoom="3.3589912"
     inkscape:cx="165.71146"
     inkscape:cy="146.24352"
     inkscape:window-x="0"
     inkscape:window-y="24"
     inkscape:window-maximized="1"
     inkscape:current-layer="svg2"
     inkscape:object-paths="true"
     inkscape:snap-intersection-paths="true"
     inkscape:object-nodes="true"
     inkscape:snap-smooth-nodes="true"
     inkscape:snap-midpoints="true"
     showguides="true"
     inkscape:guide-bbox="true">
    <sodipodi:guide
       position="15.156839,134.72747"
       orientation="0,1"
       id="guide4159" />
    <sodipodi:guide
       position="120.91188,192.58501"
       orientation="1,0"
       id="guide4161" />
  </sodipodi:namedview>
  <defs
     id="defs4" />
  <metadata
     id="metadata7">
    <rdf:RDF>
      <cc:Work
         rdf:about="">
        <dc:format>image/svg+xml</dc:format>
        <dc:type
           rdf:resource="http://purl.org/dc/dcmitype/StillImage" />
        <dc:title />
      </cc:Work>
    </rdf:RDF>
  </metadata>
  <g
     id="powerlines"
     powerlines="">
    <path
       style="fill:none;fill-rule:evenodd;stroke:#000000;stroke-width:0.41987401px;stroke-linecap:butt;stroke-linejoin:miter;stroke-opacity:1"
       d="m 158.65088,45.979367 -16.33733,0.29816"
       id="path3380-1"
       inkscape:connector-curvature="0"
       sodipodi:nodetypes="cc" />
    <path
       style="fill:none;fill-rule:evenodd;stroke:#000000;stroke-width:1px;stroke-linecap:butt;stroke-linejoin:miter;stroke-opacity:1"
       d="m 103.05332,197.81089 0,-83.42773 108.36868,0.0383 0,-68.442093 -16.63042,0"
       id="path4166"
       inkscape:connector-curvature="0" />
    <path
       inkscape:connector-curvature="0"
       id="path4169"
       d="m 197.6784,177.73192 0,-39.16306 -140.220673,0 0,-91.82865 37.511263,0"
       style="fill:none;fill-rule:evenodd;stroke:#000000;stroke-width:1px;stroke-linecap:butt;stroke-linejoin:miter;stroke-opacity:1" />
  </g>
  <g
     transform="translate(114.58687,46.403002)"
     id="generators">
    <rect
       y="-27.378788"
       x="-24.849411"
       height="54.208466"
       width="54.208466"
       id="rect4209"
       style="opacity:1;fill:#ffa300;fill-opacity:1;stroke:#000000;stroke-width:1;stroke-linejoin:round;stroke-miterlimit:4;stroke-dasharray:none;stroke-dashoffset:0;stroke-opacity:1" />
  </g>
  <g
     transform="translate(-15.381923,0.38004209)"
     id="sockets">
    <rect
       y="190.49631"
       x="90.933121"
       height="48.552288"
       width="48.552288"
       id="rect4171"
       style="opacity:1;fill:#cccccc;fill-opacity:1;stroke:#000000;stroke-width:1.79131746;stroke-linejoin:round;stroke-miterlimit:4;stroke-dasharray:none;stroke-dashoffset:0;stroke-opacity:1" />
    <rect
       style="opacity:1;fill:#cccccc;fill-opacity:1;stroke:#000000;stroke-width:1.79131746;stroke-linejoin:round;stroke-miterlimit:4;stroke-dasharray:none;stroke-dashoffset:0;stroke-opacity:1"
       id="rect4149"
       width="48.552288"
       height="48.552288"
       x="187.49565"
       y="173.31842" />
  </g>
  <g
     transform="translate(-85.731594,22.276162)"
     id="switches">
    <path
       id="path4148-3"
       d="m 280.52317,18.27923 0,10.84795 c -37.50859,0 0,0 -37.50859,0 l 0,-10.84795 z"
       style="fill:#000000;fill-opacity:1;fill-rule:evenodd;stroke:#000000;stroke-width:0.83959937px;stroke-linecap:butt;stroke-linejoin:miter;stroke-opacity:1"
       inkscape:connector-curvature="0"
       inkscape:transform-center-x="0.24967681"
       inkscape:transform-center-y="0.14776592"
       sodipodi:nodetypes="ccccc" />
  </g>
</svg>
